!!!!SEGMENT: pl-kk--kk-i-3--006-003_anonim--officium-primum-de-annuntiatione-de-bmv-gloria-patri.krn
!!!cenid: 15xx:580
!!!COM: Anonim
!!!COM-rismID:
!!!CDT:
!!!CNT:
!!!OPR: Officium Primum de Annuntiatione de BMV
!!!OTL: Gloria patri
!!!OMV: 003
!!!PDT:
!!!AGN:
!!!SMS-siglum: PL-Kk
!!!SMS-shelfmark: Kk.I.3
!!!SMS-shelfwork: 006-003 M
!!!SMS-variant:
!!!SMS-altvar:
!!!NIFC-rismSourceID: 1001145493
!!!NIFC-islandoraID: pl-kk:1170
!!!URL-pdf-islandora: https://repozytorium.nifc.pl/islandora/object/pl-kk%3A1170/datastream/PDF/view
!!!URL-scan: https://polish.musicsources.pl/pl/lokalizacje/galeria/rekopisy/5919 @EN{Scan on Polish Music Herritage in Open Access Website} @PL{Skany w portalu Dziedzictwo Muzyki Polskiej w otwartym dostępie}
!!!ONB-nifc: UWAGA: Wszystkie głosy wpisane na dodatkowych ścinkach. Discantus (skan 0020-0021), Tenor (skan 0188), Bassus (skan 0317-0318). Nastęþna część: Tollite portas
!!!AIN: 1 alto 1 bass 1 tenor
!!!key:
**kern	**text	**kern	**text	**kern	**text
*part3	*part3	*part2	*part2	*part1	*part1
*staff3	*staff3	*staff2	*staff2	*staff1	*staff1
*I"Bassus	*	*I"Tenor	*	*I"Discantus	*
*I'B	*	*I'T	*	*I'A	*
*Ibass	*	*Itenor	*	*Ialto	*
*ICvox	*	*ICvox	*	*ICvox	*
*clefF4	*	*clefC4	*	*clefC3	*
*k[]	*	*k[]	*	*k[]	*
*F:	*	*F:	*	*F:	*
=1-	=1-	=1-	=1-	=1-	=1-
1F	Glo-	1F	Glo-	2r	.
*	*	*	*	*2\right	*
.	.	.	.	2.f\	Glo-
*	*	*lig	*	*	*
1C	.	1G	-ri-	.	.
.	.	.	.	4d/	.
.	.	.	.	2e/	.
=2-	=2-	=2-	=2-	=2-	=2-
2F/	.	1c	.	1f	.
2.D/	-ri-	.	.	.	.
*	*	*Xlig	*	*	*
.	.	1c	-a	2d/	.
4C/	.	.	.	.	.
2AA,</	-a	.	.	2e/	ri-
=3-	=3-	=3-	=3-	=3-	=3-
1A	pa-	1c	pa-	2c/	-a
.	.	.	.	1f	pa-
2F/	.	1c	-tri	.	.
2D/	.	.	.	2f/	-tri
=4-	=4-	=4-	=4-	=4-	=4-
1A	.	1c	et	1e	et
1D	-tri	1c	fi-	2f/	.
.	.	.	.	1d\	fi-
=5-	=5-	=5-	=5-	=5-	=5-
2r	.	1c	-li-	.	.
*2\right	*	*	*	*	*
2A\	et	.	.	2c/	.
2F/	fi-	1c,<	-o	1d	.
2D/	.	.	.	.	.
=6-	=6-	=6-	=6-	=6-	=6-
2.A\	-li-	1c	et	1e	.
4G/	.	.	.	.	.
2F/	.	1c	spi-	2A/	.
2D/	.	.	.	2d/	.
=7-	=7-	=7-	=7-	=7-	=7-
*	*	*lig	*	*	*
*custos:AA	*	*	*	*	*
2A\	-o	1c	-ri-	2e/	.
!LO:LB:g=original	!	!	!	!	!
2AA/	et	.	.	1f	-li-
1C	spi-	1e	.	.	.
.	.	.	.	2e/	.
*	*	*Xlig	*	*	*
=8-	=8-	=8-	=8-	=8-	=8-
2FF/	-ri-	1c	-tv-	1f	-o
2.F\	-tv-	.	.	.	.
*	*	*	*	*custos:f	*
.	.	1c	-i	2r	.
4E/	.	.	.	.	.
!	!	!	!	!LO:LB:g=original	!
2D/	.	.	.	2f\	et
=9-	=9-	=9-	=9-	=9-	=9-
*	*	*lig	*	*	*
2C/	.	1c	san-	2e\	spi-
2D/	-i	.	.	2f\	-ri-
2.E/	san-	1B	.	2.g\	-tu-
4D/	.	.	.	4f\	.
*	*	*Xlig	*	*	*
*	*	*custos:G	*	*	*
!	!	!LO:LB:g=original	!	!	!
=10-	=10-	=10-	=10-	=10-	=10-
*	*	*lig	*	*	*
2C/	.	1G	-cto	2e\	.
2BB/	.	.	.	2d/	-i
1AA	-cto	1A	.	1c	San-
*	*	*Xlig	*	*	*
=11-	=11-	=11-	=11-	=11-	=11-
*	*	*lig	*	*	*
1C	ſi-	1G	si-	1e	-cto
2D/	.	1F	.	2f\	si-
2F/	.	.	.	1d\	.
*	*	*Xlig	*	*	*
=12-	=12-	=12-	=12-	=12-	=12-
*	*	*lig	*	*	*
1E	.	1G	-cvt	.	.
.	.	.	.	2c/	.
1D	-cvt	1A	.	1d	-cvt
*	*	*Xlig	*	*	*
=13-	=13-	=13-	=13-	=13-	=13-
1AA	e-	1A	e-	1e	e-
*custos:C	*	*	*	*	*
2D/	-rat	1A,<	-rat	2.f\	-rat
!LO:LB:g=original	!	!	!	!	!
2C/	.	.	.	.	.
.	.	.	.	4e\	.
=14-	=14-	=14-	=14-	=14-	=14-
2.F\	in	1A	in	2d/	in
.	.	.	.	2c/	.
4E/	.	.	.	.	.
2D/	prin-	1A	prin-	2d/	prin-
2C/	.	.	.	2A/	.
=15-	=15-	=15-	=15-	=15-	=15-
2D/	-ci-	1A	-ci-	2.f\	-ci-
2AA/	.	.	.	.	.
*	*	*	*	*custos:d	*
.	.	.	.	4e/	.
!	!	!	!	!LO:LB:g=original	!
2.F/	-pi-	1A	-pi-	2d/	.
.	.	.	.	2c/	-pi-
4E/	.	.	.	.	.
=16-	=16-	=16-	=16-	=16-	=16-
2D/	-o	1A,<	-o	2d/	.
2C/	.	.	.	1A	-o
2F/	et	1A	et	.	.
2D/	.	.	.	2d/	et
=17-	=17-	=17-	=17-	=17-	=17-
*	*	*lig	*	*	*
2A\	nu(n)c	1A	nu(n)c	2e\	.
2AA/	.	.	.	1f	.
1C	.	1c	.	.	.
.	.	.	.	2e\	.
*	*	*Xlig	*	*	*
=18-	=18-	=18-	=18-	=18-	=18-
2FF/	et	1c	et	1f	nu(n)c
2F/	.	.	.	.	.
*custos:D	*	*	*	*	*
*	*	*lig	*	*	*
!LO:PB:g=original	!	!	!	!	!
2C/	.	1c	sem-	2r	.
2D/	.	.	.	2f\	et
=19-	=19-	=19-	=19-	=19-	=19-
2.E/	Sem-	1B	.	2.g\	Sem-
4D/	.	.	.	4f/	.
*	*	*Xlig	*	*	*
*	*	*lig	*	*	*
2C/	.	1B	-per	2e/	.
2BB/	.	.	.	2d/	.
=20-	=20-	=20-	=20-	=20-	=20-
1AA	-per	1c	.	1c	-per
*	*	*Xlig	*	*	*
*	*	*custos:G	*	*	*
*	*	*lig	*	*	*
!	!	!LO:LB:g=original	!	!	!
1C	et	1G	et	1e	et
=21-	=21-	=21-	=21-	=21-	=21-
2D/	.	1F	.	2f\	.
2F/	.	.	.	1d	in
*	*	*Xlig	*	*	*
*	*	*lig	*	*	*
1E	in	1G	in	.	.
.	.	.	.	2c/	.
=22-	=22-	=22-	=22-	=22-	=22-
1D	.	1A	.	1d	.
*	*	*Xlig	*	*	*
2D/	se-	1A	se-	2d/	se-
!	!	!	!	!LO:LB:g=original	!
2C/	.	.	.	2.A/	.
=23-	=23-	=23-	=23-	=23-	=23-
2D/	.	1A	-cv-	.	.
.	.	.	.	4B/	.
1AA	-cv-	.	.	4c/	.
.	.	.	.	4d/	.
.	.	1A	-la	2e\	.
1D\	-la	.	.	1f\	.
=24-	=24-	=24-	=24-	=24-	=24-
.	.	1A	se-	.	.
2C/	ſe-	.	.	1e	-cv-
*	*	*lig	*	*	*
1F	-cv-	1A	-cv-	.	.
.	.	.	.	2d/	.
!LO:LB:g=original	!	!	!	!	!
=25-	=25-	=25-	=25-	=25-	=25-
1E	.	1B	.	1e,<	-la
*	*	*Xlig	*	*	*
*	*	*lig	*	*	*
2AA/	-lo-	1c	.	2e\	se-
1A\	.	.	.	1e\	-cv-
=26-	=26-	=26-	=26-	=26-	=26-
.	.	1A	.	.	.
4G\	.	.	.	2f\	-lo-
4F/	.	.	.	.	.
*	*	*Xlig	*	*	*
2E/	.	1G	-lo-	2g\	.
2C/	-rum	.	.	2e/	-ru(m)
=27-	=27-	=27-	=27-	=27-	=27-
2.D/	A-	1F	-ru(m)	2f\	A-
.	.	.	.	4e/	.
4E/	.	.	.	4d/	.
*	*	*lig	*	*	*
2F\	.	1F	A-	2c/	.
2FF/	.	.	.	1d\	.
=28-	=28-	=28-	=28-	=28-	=28-
2GG/	.	1E	.	.	.
*	*	*	*	*custos:d	*
2AA/	.	.	.	2c/	.
*	*	*Xlig	*	*	*
!	!	!	!	!LO:PB:g=original	!
2BB/	.	[1Dl;	-men	2.d/	.
1GG/	.	.	.	.	.
.	.	.	.	4c/	.
=29-	=29-	=29-	=29-	=29-	=29-
.	.	0D_	.	2B/	.
2FF/	.	.	.	2A/	.
1GG	.	.	.	1G	.
=30-	=30-	=30-	=30-	=30-	=30-
*	*	*custos:C	*	*	*
0Dl;	-men	0D]	.	0Fl;	-[men]
==	==	==	==	==	==
*-	*-	*-	*-	*-	*-
!!!system-decoration: [(s1,s2,s3)]
!!!RDF**kern: < = below
!!!RDF**kern: l = terminal long
!!!ENC: Filip Voros
!!!END: 2021-12-27
!!!ENC: Andrzej Kubiczek
!!!END: 2021-12-29
